X:1385
L:1/8
M:2/4
K:A
 EF |"A" A2 Ac |"A" E2 AG |"D" FA FD |"A" E2 A>B |"A" ce Ee |"A" dc BA |"E7" c3 d/c/ |"E7" B2 EF | 
"A" A2 Ac |"A" E2 A>G |"D" FA FD |"A" E2 A>B |"A" ce dc |"E7" dE GB |"A" A2 A>A |"A" A2 :: cd | 
"A" e>d ce |"A" A2 cA |"D" F<A FD |"A" E2 A>B |"A" ce Ee |"A" dc BA |"E7" c3 d/c/ |"E7" B2 cd | 
"A" e>d ce |"A" A2 cA |"D" F<A FD |"A" E2 A>B |"A" ce dc |"E7" dE GB |"A" A2 A>A |"A" A2 :: EF | 
"A" A2 A>B |"A" c2 cd |"A" eE"D" FA |"A" E2 e>d |"A" c2 cd |"A" ec BA |"E7" c3 d/c/ |"E7" B2 EF | 
"A" A2 A>B |"A" c2 cd |"A" ec BA |"D" F2 A>B |"A" ce dc |"E7" dE GB |"A" A4 |"A" A2 :: e>d | 
"A" c2 e>d |"A" ce cE |"D" FA dF |"A" E2 A>G |"D" FD FA |"D" dc"B7" BA |"E" c3 d/c/ |"E7" B2 e>d | 
"A" c2 e>d |"A" ce cE |"D" FA dF |"A" E2 A>B |"A" ce dc |"E7" dE GB |"A" A2 A>A |"A" A2 :|

